packages/kaspersky-hexa-ui-icons/src/iconsSVGs/16/Made.svg

<svg width="16" height="16" viewBox="0 0 16 16" fill="none" xmlns="http://www.w3.org/2000/svg">
<g clip-path="url(#clip0_16097_2079)">
<path fill-rule="evenodd" clip-rule="evenodd" d="M1.03413 5.01475C0.78029 4.76091 0.78029 4.34935 1.03413 4.09551L4.096 1.03364C4.34984 0.779802 4.7614 0.779801 5.01524 1.03364L8.00133 4.01973L10.2802 1.74084C10.9246 1.09648 11.9693 1.09648 12.6137 1.74084L14.2613 3.3885C14.9057 4.03286 14.9057 5.07758 14.2613 5.72195L11.9824 8.00084L14.9664 10.9848C15.2203 11.2387 15.2203 11.6502 14.9664 11.9041L11.9046 14.966C11.6507 15.2198 11.2392 15.2198 10.9853 14.966L8.00133 11.982L5.56126 14.422C5.43936 14.5439 5.27404 14.6124 5.10165 14.6124L2.03979 14.6124C1.8674 14.6124 1.70207 14.544 1.58017 14.4221C1.45827 14.3002 1.38978 14.1348 1.38978 13.9624L1.38977 10.9005C1.38977 10.7281 1.45825 10.5628 1.58015 10.4409L4.02022 8.00084L1.03413 5.01475ZM4.93946 7.0816L7.08209 4.93897L6.23896 4.09584L5.47229 4.86251C5.21845 5.11635 4.80689 5.11635 4.55305 4.86251C4.29921 4.60867 4.29921 4.19711 4.55305 3.94327L5.31972 3.1766L4.55562 2.4125L2.41299 4.55513L4.93946 7.0816ZM8.92057 11.0627L11.445 13.5871L13.5876 11.4445L12.798 10.6549L11.9827 11.4703C11.7288 11.7241 11.3173 11.7241 11.0634 11.4703C10.8096 11.2165 10.8096 10.8049 11.0634 10.5511L11.8788 9.73568L11.0632 8.92008L8.92057 11.0627ZM11.6944 2.66008C11.5578 2.5234 11.3361 2.5234 11.1995 2.66008L10.1893 3.67025L12.3319 5.81286L13.3421 4.80271C13.4788 4.66603 13.4788 4.44442 13.3421 4.30774L11.6944 2.66008ZM2.68977 11.1698L9.27005 4.58949L11.4127 6.7321L4.8324 13.3124L2.68978 13.3124L2.68977 11.1698Z" fill="black"/>
</g>
<defs>
<clipPath id="clip0_16097_2079">
<rect width="16" height="16" fill="white"/>
</clipPath>
</defs>
</svg>

<svg xmlns="http://www.w3.org/2000/svg" width="16" height="16" fill="none" viewBox="0 0 16 16"><path fill="#000" fill-rule="evenodd" d="M1.0341 5.0148a.65.65 0 0 1 0-.9193L4.096 1.0336a.65.65 0 0 1 .9192 0l2.9861 2.9861 2.2789-2.2789c.6444-.6443 1.6891-.6443 2.3335 0l1.6476 1.6477c.6444.6444.6444 1.689 0 2.3334l-2.2789 2.279 2.984 2.9839a.65.65 0 0 1 0 .9193l-3.0618 3.0619a.65.65 0 0 1-.9193 0l-2.984-2.984-2.44 2.44a.65.65 0 0 1-.4596.1904h-3.062a.65.65 0 0 1-.65-.65v-3.0619a.65.65 0 0 1 .1905-.4596l2.44-2.44zm3.9054 2.0668L7.082 4.939l-.8431-.8432-.7667.7667a.65.65 0 0 1-.9192-.9192l.7666-.7667-.764-.7641L2.413 4.5551zm3.981 3.9811 2.5245 2.5244 2.1426-2.1426-.7896-.7896-.8153.8154a.65.65 0 0 1-.9193-.9192l.8154-.8154-.8156-.8156zm2.7739-8.4026a.35.35 0 0 0-.4949 0l-1.0102 1.0101 2.1426 2.1427 1.0102-1.0102a.35.35 0 0 0 0-.495zm-9.0046 8.5097L9.27 4.5895l2.1426 2.1426-6.5803 6.5803H2.6898z"/></svg>
